docs/svgs/room-laundry.svg

<svg viewBox="0 0 24 24" height="24px" width="24px" fill="#44739e" xmlns="http://www.w3.org/2000/svg"><title>hue:room-laundry</title><desc>Source: https://github.com/arallsopp/hass-hue-icons</desc><path d="M 18.75 4.5 C 18.335938 4.5 18 4.164062 18 3.75 C 18 3.335938 18.335938 3 18.75 3 C 19.164062 3 19.5 3.335938 19.5 3.75 C 19.5 4.164062 19.164062 4.5 18.75 4.5 M 12 19.5 C 8.6875 19.5 6 16.8125 6 13.5 C 6 10.1875 8.6875 7.5 12 7.5 C 15.3125 7.5 18 10.1875 18 13.5 C 18 16.8125 15.3125 19.5 12 19.5 M 4.5 3.75 C 4.5 3.335938 4.835938 3 5.25 3 L 8.25 3 C 8.664062 3 9 3.335938 9 3.75 C 9 4.164062 8.664062 4.5 8.25 4.5 L 5.25 4.5 C 4.835938 4.5 4.5 4.164062 4.5 3.75 M 15.75 3 C 16.164062 3 16.5 3.335938 16.5 3.75 C 16.5 4.164062 16.164062 4.5 15.75 4.5 C 15.335938 4.5 15 4.164062 15 3.75 C 15 3.335938 15.335938 3 15.75 3 Z M 16.5 12.019531 C 15.761719 12.136719 15.210938 12.753906 15.210938 13.5 C 15.210938 14.246094 15.761719 14.863281 16.5 14.976562 C 15.867188 16.734375 14.152344 18 12.132812 18 C 9.578125 18 7.5 15.980469 7.5 13.5 C 7.5 11.019531 9.578125 9 12.132812 9 C 14.152344 9 15.867188 10.265625 16.5 12.019531 Z M 20.25 1.5 L 3.75 1.5 C 3.335938 1.5 3 1.835938 3 2.25 L 3 21.75 C 3 22.164062 3.335938 22.5 3.75 22.5 L 20.25 22.5 C 20.664062 22.5 21 22.164062 21 21.75 L 21 2.25 C 21 1.835938 20.664062 1.5 20.25 1.5 "/></svg>

<svg viewBox="0 0 24 24" height="24px" width="24px" fill="#44739e" xmlns="http://www.w3.org/2000/svg"><title>hue:room-laundry</title><desc>Source: https://github.com/arallsopp/hass-hue-icons</desc><path d="M18.75,4.5C18.34,4.5,18,4.16,18,3.75S18.34,3,18.75,3s0.75,0.34,0.75,0.75S19.16,4.5,18.75,4.5 M12,19.5 c-3.31,0-6-2.69-6-6s2.69-6,6-6s6,2.69,6,6S15.31,19.5,12,19.5 M4.5,3.75C4.5,3.34,4.84,3,5.25,3h3C8.66,3,9,3.34,9,3.75 S8.66,4.5,8.25,4.5h-3C4.84,4.5,4.5,4.16,4.5,3.75 M15.75,3c0.41,0,0.75,0.34,0.75,0.75S16.16,4.5,15.75,4.5 C15.34,4.5,15,4.16,15,3.75S15.34,3,15.75,3z M16.5,12.02c-0.74,0.12-1.29,0.73-1.29,1.48s0.55,1.36,1.29,1.48 C15.87,16.73,14.15,18,12.13,18c-2.55,0-4.63-2.02-4.63-4.5S9.58,9,12.13,9C14.15,9,15.87,10.27,16.5,12.02z M20.25,1.5H3.75 C3.34,1.5,3,1.84,3,2.25v19.5c0,0.41,0.34,0.75,0.75,0.75h16.5c0.41,0,0.75-0.34,0.75-0.75V2.25C21,1.84,20.66,1.5,20.25,1.5"/></svg>
